X:153
T:Muses,The. JC.152
T:Three Meet, aka. JC.152
R:Jig
S:John Clare,Poet,Helpstone (1793-1864)
O:England
A:Northamptonshire
Z:vmp.P. Headford
M:6/8
L:1/8
Q:3/8=120
K:D
A/G/|\
FAd FAd|{c}BABe2d|{d}cBc ABc|{e}dcdf2A/G/|!
FAd FAd|{c}BABe2d|{d}cBc ABc|d3d2||!
a|f2ae2a|{e}dcdc2a|f2ae2a|{ba}(^gfg)a2b|!
2ae2a|(dcd){e}c2a|f2ae2a|^gfg” D.C.”a2|]

